Numix/16/status/indicator-keyboard-Hu-6.svg

<?xml version="1.0" encoding="UTF-8" standalone="no"?>
<svg
   xmlns:dc="http://purl.org/dc/elements/1.1/"
   xmlns:cc="http://creativecommons.org/ns#"
   xmlns:rdf="http://www.w3.org/1999/02/22-rdf-syntax-ns#"
   xmlns:svg="http://www.w3.org/2000/svg"
   xmlns="http://www.w3.org/2000/svg"
   xmlns:sodipodi="http://sodipodi.sourceforge.net/DTD/sodipodi-0.dtd"
   xmlns:inkscape="http://www.inkscape.org/namespaces/inkscape"
   viewBox="0 0 16 16"
   id="svg2"
   version="1.1"
   inkscape:version="0.91 r13725"
   sodipodi:docname="indicator-keyboard-Hu-6.svg">
  <metadata
     id="metadata14">
    <rdf:RDF>
      <cc:Work
         rdf:about="">
        <dc:format>image/svg+xml</dc:format>
        <dc:type
           rdf:resource="http://purl.org/dc/dcmitype/StillImage" />
      </cc:Work>
    </rdf:RDF>
  </metadata>
  <defs
     id="defs12" />
  <sodipodi:namedview
     pagecolor="#ffffff"
     bordercolor="#666666"
     borderopacity="1"
     objecttolerance="10"
     gridtolerance="10"
     guidetolerance="10"
     inkscape:pageopacity="0"
     inkscape:pageshadow="2"
     inkscape:window-width="459"
     inkscape:window-height="369"
     id="namedview10"
     showgrid="false"
     inkscape:zoom="14.75"
     inkscape:cx="8"
     inkscape:cy="8"
     inkscape:window-x="65"
     inkscape:window-y="24"
     inkscape:window-maximized="0"
     inkscape:current-layer="svg2" />
  <path
     style="fill:#ececec;fill-opacity:1"
     d="M 1.5996094 0 C 0.71320937 2.9605947e-16 0 0.71320937 0 1.5996094 L 0 14.400391 C 2.9605947e-16 15.286791 0.71320937 16 1.5996094 16 L 14.400391 16 C 15.286791 16 16 15.286791 16 14.400391 L 16 1.5996094 C 16 0.71320937 15.286791 0 14.400391 0 L 1.5996094 0 z M 1.2617188 4.859375 L 1.8730469 4.859375 L 1.8730469 7.5683594 L 5.2578125 7.5683594 L 5.2578125 4.859375 L 5.8691406 4.859375 L 5.8691406 11.095703 L 5.2578125 11.095703 L 5.2578125 8.0996094 L 1.8730469 8.0996094 L 1.8730469 11.095703 L 1.2617188 11.095703 L 1.2617188 4.859375 z M 7.3945312 6.4433594 L 7.9804688 6.4433594 L 7.9804688 8.8632812 C 7.9804688 9.1932813 8.0027812 9.4731719 8.0507812 9.7011719 C 8.0987812 9.9291721 8.1771563 10.115766 8.2851562 10.259766 C 8.3931562 10.397766 8.5312187 10.498453 8.6992188 10.564453 C 8.8732188 10.624453 9.0840781 10.654297 9.3300781 10.654297 C 9.6060781 10.654297 9.8448281 10.639375 10.048828 10.609375 C 10.252828 10.579375 10.381547 10.553297 10.435547 10.529297 L 10.435547 6.4433594 L 11.021484 6.4433594 L 11.021484 10.933594 C 10.847484 10.981594 10.614312 11.035703 10.320312 11.095703 C 10.026312 11.155703 9.6662344 11.185547 9.2402344 11.185547 C 8.8922344 11.185547 8.6011875 11.135203 8.3671875 11.033203 C 8.1331875 10.931203 7.9428281 10.787562 7.7988281 10.601562 C 7.6548281 10.415563 7.550375 10.189781 7.484375 9.9257812 C 7.424375 9.6617813 7.3945312 9.3707344 7.3945312 9.0527344 L 7.3945312 6.4433594 z M 14.46875 8.8242188 L 14.492188 9.1464844 C 14.254288 9.1620844 14.034831 9.1993125 13.832031 9.2578125 C 13.633131 9.3124125 13.454828 9.4005844 13.298828 9.5214844 C 13.142828 9.6384843 13.01155 9.7893625 12.90625 9.9765625 C 12.80095 10.163763 12.730406 10.394969 12.691406 10.667969 C 12.796706 10.613369 12.922112 10.566344 13.070312 10.527344 C 13.218513 10.484444 13.377222 10.462891 13.544922 10.462891 C 13.763322 10.462891 13.947509 10.498159 14.099609 10.568359 C 14.251709 10.634659 14.37515 10.722838 14.46875 10.835938 C 14.56235 10.949038 14.630928 11.080316 14.673828 11.228516 C 14.716728 11.376716 14.738281 11.533466 14.738281 11.697266 C 14.738281 11.849366 14.714769 12.000244 14.667969 12.152344 C 14.621169 12.304444 14.546713 12.443559 14.445312 12.568359 C 14.347813 12.689259 14.222412 12.789187 14.070312 12.867188 C 13.922112 12.945188 13.745762 12.984375 13.539062 12.984375 C 13.113962 12.984375 12.790659 12.835463 12.568359 12.539062 C 12.349959 12.238762 12.240234 11.821409 12.240234 11.287109 C 12.240234 10.495409 12.430294 9.8958281 12.808594 9.4863281 C 13.190794 9.0768281 13.74335 8.8554188 14.46875 8.8242188 z M 13.509766 10.794922 C 13.330366 10.794922 13.171656 10.816475 13.035156 10.859375 C 12.902556 10.898375 12.779109 10.9454 12.662109 11 C 12.654309 11.0663 12.650391 11.119203 12.650391 11.158203 L 12.650391 11.292969 C 12.650391 11.476269 12.662147 11.650653 12.685547 11.814453 C 12.712847 11.978253 12.757919 12.121294 12.824219 12.246094 C 12.894419 12.370894 12.986509 12.470822 13.099609 12.544922 C 13.212709 12.615122 13.357703 12.650391 13.533203 12.650391 C 13.677503 12.650391 13.800944 12.624919 13.902344 12.574219 C 14.003744 12.519619 14.084084 12.449081 14.146484 12.363281 C 14.208884 12.277481 14.25395 12.177553 14.28125 12.064453 C 14.31245 11.951353 14.328125 11.833784 14.328125 11.708984 C 14.328125 11.396984 14.257587 11.165778 14.117188 11.017578 C 13.980687 10.869378 13.778866 10.794922 13.509766 10.794922 z "
     id="path4" />
</svg>

<svg xmlns="http://www.w3.org/2000/svg" viewBox="0 0 16 16">
 <path d="m 1.6 0 c -0.886 0 -1.6 0.713 -1.6 1.6 l 0 12.801 c 0 0.886 0.713 1.6 1.6 1.6 l 12.801 0 c 0.886 0 1.6 -0.713 1.6 -1.6 l 0 -12.801 c 0 -0.886 -0.713 -1.6 -1.6 -1.6 l -12.801 0 z m -0.338 4.859 l 0.611 0 l 0 2.709 l 3.385 0 l 0 -2.709 l 0.611 0 l 0 6.236 l -0.611 0 l 0 -2.996 l -3.385 0 l 0 2.996 l -0.611 0 l 0 -6.236 z m 6.133 1.584 l 0.586 0 l 0 2.42 c 0 0.33 0.022 0.61 0.07 0.838 c 0.048 0.228 0.126 0.415 0.234 0.559 c 0.108 0.138 0.246 0.239 0.414 0.305 c 0.174 0.06 0.385 0.09 0.631 0.09 c 0.276 0 0.515 -0.015 0.719 -0.045 c 0.204 -0.03 0.333 -0.056 0.387 -0.08 l 0 -4.086 l 0.586 0 l 0 4.49 c -0.174 0.048 -0.407 0.102 -0.701 0.162 c -0.294 0.06 -0.654 0.09 -1.08 0.09 c -0.348 0 -0.639 -0.05 -0.873 -0.152 c -0.234 -0.102 -0.424 -0.246 -0.568 -0.432 c -0.144 -0.186 -0.248 -0.412 -0.314 -0.676 c -0.06 -0.264 -0.09 -0.555 -0.09 -0.873 l 0 -2.609 z m 7.07 2.381 l 0.023 0.322 c -0.238 0.016 -0.457 0.053 -0.66 0.111 c -0.199 0.055 -0.377 0.143 -0.533 0.264 c -0.156 0.117 -0.287 0.268 -0.393 0.455 c -0.105 0.187 -0.176 0.418 -0.215 0.691 c 0.105 -0.055 0.231 -0.102 0.379 -0.141 c 0.148 -0.043 0.307 -0.064 0.475 -0.064 c 0.218 0 0.403 0.035 0.555 0.105 c 0.152 0.066 0.276 0.154 0.369 0.268 c 0.094 0.113 0.162 0.244 0.205 0.393 c 0.043 0.148 0.064 0.305 0.064 0.469 c 0 0.152 -0.024 0.303 -0.07 0.455 c -0.047 0.152 -0.121 0.291 -0.223 0.416 c -0.097 0.121 -0.223 0.221 -0.375 0.299 c -0.148 0.078 -0.325 0.117 -0.531 0.117 c -0.425 0 -0.748 -0.149 -0.971 -0.445 c -0.218 -0.3 -0.328 -0.718 -0.328 -1.252 c 0 -0.792 0.19 -1.391 0.568 -1.801 c 0.382 -0.409 0.935 -0.631 1.66 -0.662 z m -0.959 1.971 c -0.179 0 -0.338 0.022 -0.475 0.064 c -0.133 0.039 -0.256 0.086 -0.373 0.141 c -0.008 0.066 -0.012 0.119 -0.012 0.158 l 0 0.135 c 0 0.183 0.012 0.358 0.035 0.521 c 0.027 0.164 0.072 0.307 0.139 0.432 c 0.07 0.125 0.162 0.225 0.275 0.299 c 0.113 0.07 0.258 0.105 0.434 0.105 c 0.144 0 0.268 -0.025 0.369 -0.076 c 0.101 -0.055 0.182 -0.125 0.244 -0.211 c 0.062 -0.086 0.107 -0.186 0.135 -0.299 c 0.031 -0.113 0.047 -0.231 0.047 -0.355 c 0 -0.312 -0.071 -0.543 -0.211 -0.691 c -0.137 -0.148 -0.338 -0.223 -0.607 -0.223 z" style="fill:#ececec;fill-opacity:1"/>
</svg>
